public/img/clients/shinyads.svg

<svg xmlns="http://www.w3.org/2000/svg" focusable="false" role="img" viewBox="0 0 200 100" fill="currentColor">
  <path fill-rule="evenodd" d="M100.58 53.827h-3.444v15.216h3.443c1.573 0 2.623-.492 3.41-1.444.852-1.05.983-2.72.983-6.263 0-3.542-.13-5.018-.983-6.067-.787-.95-1.837-1.443-3.41-1.443l.001.001zM77.358 65.14h5.804l-2.852-8.49-2.952 8.493v-.003z" clip-rule="evenodd"/>
  <path fill-rule="evenodd" d="M135.35 9h-69.7a6.15 6.15 0 00-6.15 6.15v69.7A6.15 6.15 0 0065.65 91h69.7a6.15 6.15 0 006.15-6.15v-69.7A6.15 6.15 0 00135.35 9zm-30.094 20.324h2.542l5.784 8.94v-8.94h2.85v14.6h-2.543l-5.784-8.96v8.96h-2.85v-14.6h.001zm-6.252 0h2.85v14.6h-2.85v-14.6zm-14.043 0h2.852v5.968h4.94v-5.968h2.852v14.6h-2.85v-6.11H87.81v6.11h-2.85v-14.6h.001zm-5.92 9.147c-.288-.266-.616-.41-1.293-.513l-1.764-.245c-1.25-.184-2.173-.574-2.83-1.21-.696-.697-1.045-1.64-1.045-2.87 0-2.605 1.927-4.43 5.085-4.43 2.01 0 3.466.492 4.717 1.702l-1.805 1.783c-.923-.88-2.03-1.004-2.993-1.004-1.518 0-2.256.84-2.256 1.845 0 .37.123.76.43 1.046.287.267.76.493 1.353.575l1.722.245c1.333.184 2.174.554 2.79 1.127.778.74 1.127 1.804 1.127 3.097 0 2.828-2.36 4.427-5.415 4.427-2.214 0-3.896-.47-5.33-1.926l1.844-1.845c.922.923 2.173 1.23 3.526 1.23 1.682 0 2.584-.635 2.584-1.804 0-.512-.143-.942-.45-1.23h.003zm6.713 34.64l-1.378-4.133H76.08l-1.41 4.132h-4.756l8.493-23.35h3.574l8.527 23.35h-4.754v.001zm21.417-2.23c-1.54 1.54-3.738 2.23-6.165 2.23h-8.428V49.76h8.428c2.427 0 4.624.69 6.165 2.23 2.624 2.625 2.36 5.838 2.36 9.347 0 3.51.264 6.92-2.36 9.542v.002zm12.63 2.426c-3.54 0-6.23-.754-8.526-3.082l2.952-2.952c1.476 1.475 3.475 1.968 5.64 1.968 2.69 0 4.13-1.017 4.13-2.886 0-.82-.228-1.508-.72-1.968-.46-.426-.984-.655-2.066-.82l-2.82-.393c-2-.295-3.476-.92-4.526-1.935-1.114-1.115-1.67-2.623-1.67-4.59 0-4.166 3.08-7.084 8.13-7.084 3.214 0 5.543.787 7.543 2.723l-2.885 2.85c-1.476-1.41-3.248-1.605-4.788-1.605-2.427 0-3.607 1.344-3.607 2.952 0 .59.196 1.212.688 1.672.46.426 1.214.787 2.165.917l2.754.394c2.13.296 3.476.885 4.46 1.804 1.246 1.182 1.803 2.887 1.803 4.952 0 4.526-3.77 7.084-8.657 7.084v-.001zm5.61-35.37v5.99h-2.83v-5.99l-4.39-8.612h3.097l2.727 5.886 2.687-5.886h3.097l-4.388 8.613v-.001z" clip-rule="evenodd"/>
</svg>

<svg width="200" height="100" viewBox="0 0 200 100" fill="none" xmlns="http://www.w3.org/2000/svg">
<path fill-rule="evenodd" clip-rule="evenodd" d="M100.58 53.8269H97.136V69.0429H100.579C102.152 69.0429 103.202 68.5509 103.989 67.5989C104.841 66.5489 104.972 64.8789 104.972 61.3359C104.972 57.7939 104.842 56.3179 103.989 55.2689C103.202 54.3189 102.152 53.8259 100.579 53.8259L100.58 53.8269ZM77.358 65.1399H83.162L80.31 56.6499L77.358 65.1429V65.1399Z" fill="black"/>
<path fill-rule="evenodd" clip-rule="evenodd" d="M135.35 9H65.65C62.254 9 59.5 11.754 59.5 15.15V84.85C59.5 88.246 62.254 91 65.65 91H135.35C138.746 91 141.5 88.246 141.5 84.85V15.15C141.5 11.754 138.746 9 135.35 9ZM105.256 29.324H107.798L113.582 38.264V29.324H116.432V43.924H113.889L108.105 34.964V43.924H105.255V29.324H105.256ZM99.004 29.324H101.854V43.924H99.004V29.324ZM84.961 29.324H87.813V35.292H92.753V29.324H95.605V43.924H92.755V37.814H87.81V43.924H84.96V29.324H84.961ZM79.041 38.471C78.753 38.205 78.425 38.061 77.748 37.958L75.984 37.713C74.734 37.529 73.811 37.139 73.154 36.503C72.458 35.806 72.109 34.863 72.109 33.633C72.109 31.028 74.036 29.203 77.194 29.203C79.204 29.203 80.66 29.695 81.911 30.905L80.106 32.688C79.183 31.808 78.076 31.684 77.113 31.684C75.595 31.684 74.857 32.524 74.857 33.529C74.857 33.899 74.98 34.289 75.287 34.575C75.574 34.842 76.047 35.068 76.64 35.15L78.362 35.395C79.695 35.579 80.536 35.949 81.152 36.522C81.93 37.262 82.279 38.326 82.279 39.619C82.279 42.447 79.919 44.046 76.864 44.046C74.65 44.046 72.968 43.576 71.534 42.12L73.378 40.275C74.3 41.198 75.551 41.505 76.904 41.505C78.586 41.505 79.488 40.87 79.488 39.701C79.488 39.189 79.345 38.759 79.038 38.471H79.041ZM85.754 73.111L84.376 68.978H76.08L74.67 73.11H69.914L78.407 49.76H81.981L90.508 73.11H85.754V73.111ZM107.171 70.881C105.631 72.421 103.433 73.111 101.006 73.111H92.578V49.76H101.006C103.433 49.76 105.63 50.45 107.171 51.99C109.795 54.615 109.531 57.828 109.531 61.337C109.531 64.847 109.795 68.257 107.171 70.879V70.881ZM119.801 73.307C116.261 73.307 113.571 72.553 111.275 70.225L114.227 67.273C115.703 68.748 117.702 69.241 119.867 69.241C122.557 69.241 123.997 68.224 123.997 66.355C123.997 65.535 123.769 64.847 123.277 64.387C122.817 63.961 122.293 63.732 121.211 63.567L118.391 63.174C116.391 62.879 114.915 62.254 113.865 61.239C112.751 60.124 112.195 58.616 112.195 56.649C112.195 52.483 115.275 49.565 120.325 49.565C123.539 49.565 125.868 50.352 127.868 52.288L124.983 55.138C123.507 53.728 121.735 53.533 120.195 53.533C117.768 53.533 116.588 54.877 116.588 56.485C116.588 57.075 116.784 57.697 117.276 58.157C117.736 58.583 118.49 58.944 119.441 59.074L122.195 59.468C124.325 59.764 125.671 60.353 126.655 61.272C127.901 62.454 128.458 64.159 128.458 66.224C128.458 70.75 124.688 73.308 119.801 73.308V73.307ZM125.411 37.937V43.927H122.581V37.937L118.191 29.325H121.288L124.015 35.211L126.702 29.325H129.799L125.411 37.938V37.937Z" fill="black"/>
</svg>
